packages/vibrant-icons/assets/icons/Home/Fill.svg

<svg width="24" height="24" viewBox="0 0 24 24" fill="none" xmlns="http://www.w3.org/2000/svg">
<path d="M21.6499 21.85C21.7604 21.85 21.8499 21.7604 21.8499 21.65V9.54544C21.8499 9.48764 21.8249 9.43267 21.7813 9.39469L12.1313 0.982045C12.056 0.916386 11.9438 0.916385 11.8685 0.982044L2.21847 9.39469C2.17491 9.43267 2.1499 9.48764 2.1499 9.54544V21.65C2.1499 21.7604 2.23944 21.85 2.3499 21.85H10.6999C10.8104 21.85 10.8999 21.7604 10.8999 21.65V14.85C10.8999 14.7395 10.9894 14.65 11.0999 14.65H12.8999C13.0104 14.65 13.0999 14.7395 13.0999 14.85V21.65C13.0999 21.7604 13.1894 21.85 13.2999 21.85H21.6499Z" fill="#0C0C0C"/>
</svg>

<svg xmlns="http://www.w3.org/2000/svg" width="24" height="24" fill="none"><path fill="#0C0C0C" d="M21.65 21.85a.2.2 0 0 0 .2-.2V9.545a.2.2 0 0 0-.069-.15L12.131.982a.2.2 0 0 0-.263 0l-9.65 8.413a.2.2 0 0 0-.068.15V21.65c0 .11.09.2.2.2h8.35a.2.2 0 0 0 .2-.2v-6.8c0-.11.09-.2.2-.2h1.8c.11 0 .2.09.2.2v6.8c0 .11.09.2.2.2z"/></svg>
